T: Arra Mountains
M: 9/8
L: 1/8
K: Ador
|:EAA EAB cBc|EAA EAG GFG|EAA EAB c2 d||ege ege dBG:|||A2 a gef g3|e2 a ged Bcd|e2 a gef g2 e||A2 a gfe g3|e2 a ged Bcd|efg fga g2 e||dBd ege dBG||||EAA EAB ~c3|EAA EAF GFG|EAA EAB c2 d|~e3 ege dBG:|||[Ae]aa gef ~g3|[Ae]aa ged Bcd|[Ae]aa gef g2 e|dB/c/d ege dBG||[Ae]aa gef ~g3|[Ae]aa ged Bcd|e/f/ge f/g/af g2 e|dB/c/d ege dBG||
